X:175
T: Ahascragh Pig
T: Mhuc \'o \'Ath Eascragh
S: B.Breathnach: "Ceol Rince na hEireann" II/37
Z: B.Black
L: 1/8
M: 6/8
R: jig
K: D
d|dFF A2A|dAG FED|DAF A2A|def e2d|
dFF A2A|dAG FED|DAF A2A|def e2 :|
A|def g2b|afd edB|def g2b|afd e2d|
def ggg|f2f edA|BAF A2A|def e2 :|
